X: 17
T: Acemaşîrân Peşrev
C: Hüseyin Fahreddin Dede
O: Turkey
F: http://compmusic.upf.edu/node/140
N: acemasiran--pesrev--duyek--son_pesrev--huseyin_fahreddin_dede
N: makam= acemasiran
N: form= pesrev
N: usul= duyek = 8/4
M: 8/4
L: 1/16
K: C _B   
Q: 1/4=192
%%MIDI tuningsystem comma53
c6 a2 g3f e2 f2  | gf ga g2 f2 ef ed c2 d2  | \
w:   |   | 
c4 d2 e2 f2 g2 f2 e2  | 
w:   | 
f3e f2 g2 f4 g2 a2  | g3f e2 f2 e4 f4  | \
w:   |   | 
g2 a2 g2 ^f2 g2 a2 a4  | a4 g2 a2 g4 c'2 _1/4bc'  | 
w:   |   | 
d'2 c'_1/4b a4 a6 z2  | a2 c'2 b4 b2 d'2 c'2 b2  | \
w:   |   | 
b2 a4 g2 a3g f4  | g3f e2 f2 g2 a2 f2 g2  | 
w:   |   | 
z2 ab a2 g2 f3e ed d^c  | d4 e2 f2 g2 a2 f2 g2  | \
w:   |   | 
z2 ab a2 g2 f3e d2 e2  | 
w:   | 
f6 e2 d4 c4  | B2 d2 c2 B2 A2 G2 F4  | \
w:   |   | 
c2 de fg fe fg fe f2 g2  | 
w:   | 
f2 ga gf e2 e2 fg fe d2  | z2 d_3/4e d2 c2 d4 e4  | \
w:   |   | 
^3/4f2 ga g2 f2 _3/4e2 d2 c2 _1/4B2  | 
w:   | 
c4 d2 c2 d4 e4  | f3e f2 g2 f2 g2 e4  | \
w:   |   | 
e4 d2 e2 d4 c2 _1/4B2  | A6 d2 ^c4 d4  | 
w:   |   | 
A2 B2 A2 G2 A2 AG A2 _1/4B2  | c2 d2 c2 B2 c4 d4  | \
w:   |   | 
z4 c2 d2 _3/4e2 ^3/4f2 e2 d2  | 
w:   | 
d2 c2 c2 B2 AB AG F4  | F4 G2 GF G2 A2 B2 c2  | \
w:   |   | 
z2 AB A2 G2 F3E D2 E2  | 
w:   | 
G3F E2 F2 E2 F2 G2 E2  | F6 C2 D2 E2 F4  | |


